X:77
T:New Pavement, The
M:6/8
L:1/8
B:Thompson's Compleat Collection of 200 Favourite Country Dances, vol. 3 (London, 1773)
Z:Transcribed and edited by Flynn Titford-Mock, 2007
Z:abc's:AK/Fiddler's Companion
K:G
d | GBG GBG | d3 B3 | AcA AcA | e3 g3 | GBG GBG | d3 B3 | dBd cAF | (G3 G2) :|
|: d | dBd dBd | efg gfe | ded dcB | (A3 A2)d | GBG GBG | d3 B2e | d2c BcA | (G3 G2) :|

